X:1
T:Title
%%score ( 1 2 ) ( 3 4 )
L:1/8
Q:1/4=103
M:6/8
K:Ab
V:1 treble nm="Grand Piano, Soprano"
V:2 treble 
V:3 bass nm="Choir Pad, Treviso, C. A. Shaw, 1892"
V:4 bass 
V:1
 [CE] [Ec]2 [Ec][Fd][Ec] | z3 z .B2 | z3 z .A2 | [Ec] [EB]2- [EB]2- [EB]/ z/ | %4
w: By~C.~A.~Shaw,~1892 * * * *||||
 E [Ec]2 [Ec][Fd][Ec] | z3 z .B2 | [DF][CE][EA] [Ed] [Ec]2 | [DB] [CA]2- [CA]2- [CA]/ z/ | %8
w: ||||
 [Ec] [CA]2 [DF] [CE]2 | [CE][DF][FA] [Fd] [Ec]2 | [Ec] [Fc]2 [FB][EA][DG] | %11
w: |||
 [CA] [DB]2- [DB]2- [DB]/ z/ | [DE][CE][EA] [EB] [Ec]2 | [Ec][Ec][CA] [Fd] [Ec]2 | %14
w: |||
 [CE][DF][FA] [Fd] [Ec]2 | [DB] [CA]2- [CA]3- | [CA]3 z3 |] %17
w: |||
V:2
 x6 | [EB] [EA]2 [EA]F-[FA] | [DF] [CE]2 [CE]E-[EB] | x6 | x6 | [EB] [EA]2 [EA]F-[FA] | x6 | x6 | %8
 x6 | x6 | x6 | x6 | x6 | x6 | x6 | x6 | x6 |] %17
V:3
 [A,,A,] [A,,A,]2 [A,,A,] [A,,A,]2 | [B,,G,] [C,A,]2 [C,A,] [D,A,]2 | %2
 [D,A,] [A,,A,]2 [A,,A,][C,A,][B,,G,] | [A,,A,] [E,G,]2- [E,G,]2- [E,G,]/ z/ | %4
 [E,G,] [A,,A,]2 [A,,A,] [A,,A,]2 | [B,,G,] [C,A,]2 [C,A,] [D,A,]2 | z .A,2 z3 | %7
 [E,G,] [A,,A,]2- [A,,A,]2- [A,,A,]/ z/ | [A,,A,] [A,,A,]2 [A,,A,] [A,,A,]2 | %9
 [A,,A,] [D,A,]2 [F,A,] A,2 | A, [F,A,]2 [D,A,][C,A,][B,,E,] | %11
 [A,,A,] [E,G,]2- [E,G,]2- [E,G,]/ z/ | z A,2 z3 | A, [A,,A,]2 [A,,A,] [A,,A,]2 | %14
 [A,,A,] [D,A,]2 [B,,A,] [E,A,]2 | [E,G,] [A,,A,]2- [A,,A,]3- | [A,,A,]3 z3 |] %17
V:4
 x6 | x6 | x6 | x6 | x6 | x6 | [D,A,]E,-[E,C] [E,B,] [E,A,]2 | x6 | x6 | x6 | x6 | x6 | %12
 [E,G,]A,,C, [E,G,] A,2 | x6 | x6 | x6 | x6 |] %17

